X: 11327
T: Eamon Coyne's
R: reel
M: 4/4
K: Edorian
|:GA|BEGA BE3|B2AB GE3|A2AB AF3|dBAF D2EF|
G3A (3Bcd gf|eB (3BBB d3A|B2Bd BA3|dBAG E2:|
|:Bd|e2 ef g2 fg|edBd edBc|d2 def2 fe|dBAF E2 EF|
G3A (3Bcd gf|edBc d2 dA|B2 Bd BA FA|dBAG E2:|

